X:608
T:Top of Balvenie, The
C:William Marshall
B:Marshall's 2nd Collection (1845)
Z:Nigel Gatherer
L:1/8
M:4/4
K:G
g | G<G Bc/d/ Gc Bc/d/ | DAFA        cedB |\
    G<G Bc/d/ Gc Bc/d/ | eg f/g/a/f/ gGB :|
g | dgBg      dgbg     | dgBg        aAce |\
    dgBg      dgbg     | (3efg (3fga gGB 
g | dgBg      dgbg     | dgBg        aAce |\
    G<G Bc/d/ Gc Bc/d/ | eg f/g/a/f/ gGB  |]
<end>
<start>
